X:99
T:Lady Walpole
M:2/4
Q:1/4=100
L:1/16
K:D
%%MIDI channel 1
%%MIDI program 72
%%MIDI transpose 8
%%MIDI grace 1/8
%%MIDI ratio 3 1
A2|d2f2 fgef|d2A2 A2AG|FAdA GFGB|ABAG F2D2|dAfd afba|
dcBa gfed|cdae dcdf|edcB A2::A2|AdAF dfdA|GFGA BAGF|
E2ba gfed|cdec A2 (3(ABc)|dafa bgeg|fadf ecA2|abag fedc|d2d2d2:|

